dist/assets/img/profile.svg

<svg width="26" height="34" viewBox="0 0 26 34" fill="none" xmlns="http://www.w3.org/2000/svg">
<path d="M18.8453 7.76192C18.8453 11.0822 16.1536 13.7738 12.8334 13.7738V15.2738C16.9821 15.2738 20.3453 11.9106 20.3453 7.76192H18.8453ZM12.8334 13.7738C9.51307 13.7738 6.82144 11.0822 6.82144 7.76192H5.32144C5.32144 11.9106 8.68464 15.2738 12.8334 15.2738V13.7738ZM6.82144 7.76192C6.82144 4.44163 9.51307 1.75 12.8334 1.75V0.25C8.68464 0.25 5.32144 3.6132 5.32144 7.76192H6.82144ZM12.8334 1.75C16.1536 1.75 18.8453 4.44163 18.8453 7.76192H20.3453C20.3453 3.6132 16.9821 0.25 12.8334 0.25V1.75ZM7.76192 20.3453H17.9048V18.8453H7.76192V20.3453ZM17.9048 32.3691H7.76192V33.8691H17.9048V32.3691ZM7.76192 32.3691C4.44163 32.3691 1.75 29.6775 1.75 26.3572H0.25C0.25 30.5059 3.6132 33.8691 7.76192 33.8691V32.3691ZM23.9167 26.3572C23.9167 29.6775 21.2251 32.3691 17.9048 32.3691V33.8691C22.0535 33.8691 25.4167 30.5059 25.4167 26.3572H23.9167ZM17.9048 20.3453C21.2251 20.3453 23.9167 23.0369 23.9167 26.3572H25.4167C25.4167 22.2085 22.0535 18.8453 17.9048 18.8453V20.3453ZM7.76192 18.8453C3.6132 18.8453 0.25 22.2085 0.25 26.3572H1.75C1.75 23.0369 4.44163 20.3453 7.76192 20.3453V18.8453Z" fill="#383838"/>
</svg>

<svg width="26" height="34" fill="none" xmlns="http://www.w3.org/2000/svg"><path d="M18.845 7.762a6.012 6.012 0 0 1-6.012 6.012v1.5a7.512 7.512 0 0 0 7.512-7.512h-1.5Zm-6.012 6.012a6.012 6.012 0 0 1-6.012-6.012h-1.5a7.512 7.512 0 0 0 7.512 7.512v-1.5ZM6.821 7.762a6.012 6.012 0 0 1 6.012-6.012V.25a7.512 7.512 0 0 0-7.512 7.512h1.5Zm6.012-6.012a6.012 6.012 0 0 1 6.012 6.012h1.5A7.512 7.512 0 0 0 12.833.25v1.5ZM7.762 20.345h10.143v-1.5H7.762v1.5ZM17.905 32.37H7.762v1.5h10.143v-1.5Zm-10.143 0a6.012 6.012 0 0 1-6.012-6.012H.25a7.512 7.512 0 0 0 7.512 7.512v-1.5Zm16.155-6.012a6.012 6.012 0 0 1-6.012 6.012v1.5a7.512 7.512 0 0 0 7.512-7.512h-1.5Zm-6.012-6.012a6.012 6.012 0 0 1 6.012 6.012h1.5a7.512 7.512 0 0 0-7.512-7.512v1.5Zm-10.143-1.5A7.512 7.512 0 0 0 .25 26.357h1.5a6.012 6.012 0 0 1 6.012-6.012v-1.5Z" fill="#383838"/></svg>
